public/fonio/map-paths.svg

<?xml version="1.0" encoding="UTF-8" standalone="no"?>
<!-- Created with Inkscape (http://www.inkscape.org/) -->

<svg
   xmlns:dc="http://purl.org/dc/elements/1.1/"
   xmlns:cc="http://creativecommons.org/ns#"
   xmlns:rdf="http://www.w3.org/1999/02/22-rdf-syntax-ns#"
   xmlns:svg="http://www.w3.org/2000/svg"
   xmlns="http://www.w3.org/2000/svg"
   xmlns:xlink="http://www.w3.org/1999/xlink"
   xmlns:sodipodi="http://sodipodi.sourceforge.net/DTD/sodipodi-0.dtd"
   xmlns:inkscape="http://www.inkscape.org/namespaces/inkscape"
   width="459.42551mm"
   height="235.14745mm"
   viewBox="0 0 459.42551 235.14745"
   version="1.1"
   id="svg8"
   inkscape:version="0.92.4 (5da689c313, 2019-01-14)"
   sodipodi:docname="fonio-map-path.svg">
  <defs
     id="defs2">
    <image
       xlink:href="data:image/png;base64,iVBORw0KGgoAAAANSUhEUgAAASwAAAANCAYAAAAT+lNSAAAAAXNSR0IArs4c6QAAADhlWElmTU0AKgAAAAgAAYdpAAQAAAABAAAAGgAAAAAAAqACAAQAAAABAAABLKADAAQAAAABAAAADQAAAADMVXXMAAAAlklEQVRoBe3UAQ2AMBADwG1oQQ2iCGKQgAokIOYJwcSa3Ctorp/2qmr7tlZzBAgQmFxgqfs0VpOXJB4BAr/AAEGAAIEUAYOV0pScBAg0g+UJCBCIETBYMVUJSoCAwfIDBAjECBismKoEJUDAYPkBAgRiBAxWTFWCEiBgsPwAAQIxAgYrpipBCRAYx/V0DAQIEJhd4NuqF0zJDJjOq+EkAAAAAElFTkSuQmCC"
       height="7.3169999"
       width="168.855"
       id="image" />
    <image
       xlink:href="data:image/png;base64,iVBORw0KGgoAAAANSUhEUgAAASwAAAANCAYAAAAT+lNSAAAAAXNSR0IArs4c6QAAADhlWElmTU0AKgAAAAgAAYdpAAQAAAABAAAAGgAAAAAAAqACAAQAAAABAAABLKADAAQAAAABAAAADQAAAADMVXXMAAAAjElEQVRoBe3UAQmAUBBEQf/PYhpDCYYyjWEUTeGDuQTL7LFj39Z7cQQIEAgIzEBGEQkQIPAJGCyPQIBARsBgZaoSlAABg+UHCBDICBisTFWCEiBgsPwAAQIZAYOVqUpQAgQMlh8gQCAjYLAyVQlKgIDB8gMECGQEDFamKkEJEJjHeQ0MBAgQ+LvAu1UPCQUGKaC8tukAAAAASUVORK5CYII="
       height="7.3169999"
       width="168.855"
       id="image-2" />
  </defs>
  <sodipodi:namedview
     id="base"
     pagecolor="#ffffff"
     bordercolor="#666666"
     borderopacity="1.0"
     inkscape:pageopacity="0.0"
     inkscape:pageshadow="2"
     inkscape:zoom="0.7"
     inkscape:cx="747.17376"
     inkscape:cy="442.40622"
     inkscape:document-units="mm"
     inkscape:current-layer="Group_953"
     showgrid="false"
     inkscape:window-width="1920"
     inkscape:window-height="1017"
     inkscape:window-x="1912"
     inkscape:window-y="-8"
     inkscape:window-maximized="1" />
  <metadata
     id="metadata5">
    <rdf:RDF>
      <cc:Work
         rdf:about="">
        <dc:format>image/svg+xml</dc:format>
        <dc:type
           rdf:resource="http://purl.org/dc/dcmitype/StillImage" />
        <dc:title></dc:title>
      </cc:Work>
    </rdf:RDF>
  </metadata>
  <g
     inkscape:label="Layer 1"
     inkscape:groupmode="layer"
     id="layer1"
     transform="translate(155.62942,-28.2358)">
    <g
       transform="matrix(0.26458333,0,0,0.26458333,-176.39921,18.446217)"
       data-name="Group 1240"
       id="Group_1240">
      <g
         transform="translate(-485.183,281.729)"
         data-name="Group 226"
         id="Group_226">
        <line
           stroke-miterlimit="10"
           transform="translate(576.586,554.716)"
           x2="151.106"
           data-name="Line 42"
           id="Line_42"
           x1="0"
           y1="0"
           y2="0"
           style="fill:none;stroke:#248432;stroke-width:4;stroke-miterlimit:10" />
        <line
           stroke-miterlimit="10"
           transform="translate(576.586,591.633)"
           x2="151.106"
           data-name="Line 43"
           id="Line_43"
           x1="0"
           y1="0"
           y2="0"
           style="fill:none;stroke:#f77e0b;stroke-width:4;stroke-miterlimit:10" />
        <line
           stroke-miterlimit="10"
           transform="translate(576.586,517.798)"
           x2="151.106"
           data-name="Line 44"
           id="Line_44"
           x1="0"
           y1="0"
           y2="0"
           style="fill:none;stroke:#00a1ed;stroke-width:2;stroke-miterlimit:10;stroke-dasharray:12, 9" />
        <text
           font-size="15"
           transform="translate(740.46,522.837)"
           data-name="Flow of Benefits Flow of Money Flow of Product"
           id="Flow_of_Benefits_Flow_of_Money_Flow_of_Product"
           style="font-size:15px;font-family:SegoeUI, 'Segoe UI';fill:#1a1818">
          <tspan
             id="tspan822"
             y="0"
             x="0">Flow of Benefits</tspan>
          <tspan
             id="tspan824"
             y="36"
             x="0">Flow of Money</tspan>
          <tspan
             id="tspan826"
             y="72"
             x="0">Flow of Product</tspan>
        </text>
        <rect
           stroke-miterlimit="10"
           transform="translate(564.183,500.748)"
           height="110.946"
           width="293.44101"
           data-name="Rectangle 143"
           id="Rectangle_143"
           x="0"
           y="0"
           style="fill:none;stroke:#818386;stroke-width:1;stroke-miterlimit:10" />
      </g>
      <g
         transform="translate(84.067,-10.128)"
         data-name="Group 953"
         id="Group_953">
        <path
           stroke-miterlimit="10"
           transform="translate(48.432,308.418)"
           d="M 409.987,367.98 H 153.836 c -4.927,0.113 -45.42,0.575 -71.1,-22.167 -15.3,-13.555 -17.425,-28.34 -17.8,-34.273 V 276.4"
           data-name="Path 2532"
           id="Path_2532"
           inkscape:connector-curvature="0"
           style="fill:none;stroke:#f77e0b;stroke-width:4;stroke-miterlimit:10" />
        <path
           stroke-miterlimit="10"
           transform="translate(48.329,69.235)"
           d="M 65.038,473.954 64.86,145.678 A 49.7,49.7 0 0 1 72.489,120 c 12.08,-18.776 32.957,-21.109 36.046,-21.4"
           data-name="Path 2533"
           id="Path_2533"
           inkscape:connector-curvature="0"
           style="fill:none;stroke:#f77e0b;stroke-width:4;stroke-miterlimit:10" />
        <line
           stroke-miterlimit="10"
           transform="translate(590.905,169.884)"
           x2="106.549"
           data-name="Line 74"
           id="Line_74"
           x1="0"
           y1="0"
           y2="0"
           style="fill:none;stroke:#f77e0b;stroke-width:4;stroke-miterlimit:10" />
        <line
           stroke-miterlimit="10"
           transform="translate(881.093,169.884)"
           x2="100.618"
           data-name="Line 75"
           id="Line_75"
           x1="0"
           y1="0"
           y2="0"
           style="fill:none;stroke:#f77e0b;stroke-width:4;stroke-miterlimit:10" />
        <line
           stroke-miterlimit="10"
           transform="translate(1111.002,169.884)"
           x2="93.669998"
           data-name="Line 76"
           id="Line_76"
           x1="0"
           y1="0"
           y2="0"
           style="fill:none;stroke:#f77e0b;stroke-width:4;stroke-miterlimit:10" />
        <path
           stroke-miterlimit="10"
           transform="translate(891.116,65.94)"
           d="m 691.369,96.181 c 0,0 44.3,-2.779 49.742,41.543 v 50.938"
           data-name="Path 2534"
           id="Path_2534"
           inkscape:connector-curvature="0"
           style="fill:none;stroke:#f77e0b;stroke-width:4;stroke-miterlimit:10" />
        <line
           stroke-miterlimit="10"
           transform="translate(1644.183,473.299)"
           y2="38.588001"
           data-name="Line 77"
           id="Line_77"
           x1="0"
           y1="0"
           x2="0"
           style="fill:none;stroke:#f77e0b;stroke-width:4;stroke-miterlimit:10" />
        <line
           stroke-miterlimit="10"
           transform="translate(1669.795,473.299)"
           y2="38.588001"
           data-name="Line 78"
           id="Line_78"
           x1="0"
           y1="0"
           x2="0"
           style="fill:none;stroke:#00a1ed;stroke-width:2;stroke-miterlimit:10;stroke-dasharray:12, 9" />
        <line
           stroke-miterlimit="10"
           transform="translate(1383.579,619.585)"
           x1="148.589"
           data-name="Line 79"
           id="Line_79"
           y1="0"
           x2="0"
           y2="0"
           style="fill:none;stroke:#f77e0b;stroke-width:4;stroke-miterlimit:10" />
        <path
           stroke-miterlimit="10"
           transform="translate(209.838,146.374)"
           d="m 249.2,447.615 -36.843,0.471 c -5.743,0 -14.468,-1.032 -20.4,-7.235 -5.971,-6.241 -6.421,-14.576 -6.482,-18.415 -0.256,-16.421 -0.748,-71.951 -0.424,-147.821 a 26.505,26.505 0 0 1 6.583,-20.286 c 10.331,-11.316 26.438,-8.872 27.247,-8.736 l 308.672,0.523 c 2.094,0.106 28.208,1 43.215,-18.49 a 43.846,43.846 0 0 0 8.762,-29.552 q 0.025,-21.068 0.049,-42.136"
           data-name="Path 2535"
           id="Path_2535"
           inkscape:connector-curvature="0"
           style="fill:none;stroke:#248432;stroke-width:4;stroke-miterlimit:10" />
        <path
           stroke-miterlimit="10"
           transform="translate(11.288,11.967)"
           d="m 1655.317,229.086 v -101.9 c 0,0 -8.187,-68.794 -68.485,-70.931 H 123.737 c 0,0 -87.711,-7.649 -85.666,64.545 v 424.99 c 0,0 -10.222,84.949 44.981,82.91"
           data-name="Path 2536"
           id="Path_2536"
           inkscape:connector-curvature="0"
           style="fill:none;stroke:#00a1ed;stroke-width:2;stroke-miterlimit:10;stroke-dasharray:12, 9" />
        <line
           stroke-miterlimit="10"
           transform="translate(185.346,642.898)"
           x2="269.09601"
           data-name="Line 80"
           id="Line_80"
           x1="0"
           y1="0"
           y2="0"
           style="fill:none;stroke:#00a1ed;stroke-width:2;stroke-miterlimit:10;stroke-dasharray:12, 9" />
        <path
           stroke-miterlimit="10"
           transform="translate(408.807,146.374)"
           d="m 936.04,155.939 v 40.183 c 0.242,1.438 3.232,21.337 -12.076,35.424 -14.77,13.593 -33.5,9.747 -35.169,9.374 h -427.51 c 0,0 -36.991,5.054 -33.478,54.444 l -0.277,115.8 c -0.1,2.58 -0.943,17.493 -13.379,28.093 a 38.631,38.631 0 0 1 -22.125,8.945 h -59.2"
           data-name="Path 2537"
           id="Path_2537"
           inkscape:connector-curvature="0"
           style="fill:none;stroke:#00a1ed;stroke-width:2;stroke-miterlimit:10;stroke-dasharray:12, 9" />
        <path
           transform="translate(147.392,349.7)"
           d="M 159.624,348.815 138.5,328.21 159.105,307.087 q 0.258,20.864 0.519,41.728 z"
           data-name="Path 2538"
           id="Path_2538"
           inkscape:connector-curvature="0"
           style="fill:#f77e0b" />
        <path
           transform="translate(606.549)"
           d="m 500.951,88.856 -21.123,-20.605 20.6,-21.123 q 0.263,20.864 0.523,41.728 z"
           data-name="Path 2539"
           id="Path_2539"
           inkscape:connector-curvature="0"
           style="fill:#00a1ed" />
        <path
           transform="translate(606.944,183.289)"
           d="m 501.245,225.109 -21.123,-20.609 20.6,-21.123 q 0.265,20.868 0.523,41.732 z"
           data-name="Path 2540"
           id="Path_2540"
           inkscape:connector-curvature="0"
           style="fill:#00a1ed" />
        <path
           transform="translate(290.134,185.448)"
           d="m 265.735,226.712 -21.123,-20.6 20.6,-21.123 q 0.263,20.861 0.523,41.723 z"
           data-name="Path 2541"
           id="Path_2541"
           inkscape:connector-curvature="0"
           style="fill:#248432" />
        <path
           transform="translate(811.402,316.585)"
           d="m 653.234,324.2 -21.123,-20.605 20.6,-21.123 q 0.263,20.862 0.523,41.728 z"
           data-name="Path 2542"
           id="Path_2542"
           inkscape:connector-curvature="0"
           style="fill:#f77e0b" />
        <path
           transform="translate(36.362,152.955)"
           d="m 55.964,182.107 20.448,-21.276 21.276,20.446 z"
           data-name="Path 2543"
           id="Path_2543"
           inkscape:connector-curvature="0"
           style="fill:#f77e0b" />
        <path
           transform="translate(927.402,64.952)"
           d="m 718.343,116.69 20.445,-21.278 21.278,20.448 z"
           data-name="Path 2544"
           id="Path_2544"
           inkscape:connector-curvature="0"
           style="fill:#00a1ed" />
        <path
           transform="translate(351.158,58.175)"
           d="m 289.976,90.374 20.947,20.783 -20.783,20.943 q -0.081,-20.859 -0.164,-41.726 z"
           data-name="Path 2545"
           id="Path_2545"
           inkscape:connector-curvature="0"
           style="fill:#f77e0b" />
        <path
           transform="translate(641.531,58.175)"
           d="M 505.833,90.374 526.78,111.157 506,132.1 q -0.087,-20.859 -0.167,-41.726 z"
           data-name="Path 2546"
           id="Path_2546"
           inkscape:connector-curvature="0"
           style="fill:#f77e0b" />
        <path
           transform="translate(907.68,88.027)"
           d="M 745.413,112.656 724.5,133.475 703.679,112.565 Z"
           data-name="Path 2547"
           id="Path_2547"
           inkscape:connector-curvature="0"
           style="fill:#f77e0b" />
        <path
           transform="translate(0,154.612)"
           d="m 70.664,162.154 -20.91,20.818 -20.821,-20.91 z"
           data-name="Path 2548"
           id="Path_2548"
           inkscape:connector-curvature="0"
           style="fill:#00a1ed" />
        <path
           transform="translate(423.677,165.491)"
           d="M 385.616,170.241 364.7,191.06 343.882,170.15 Z"
           data-name="Path 2549"
           id="Path_2549"
           inkscape:connector-curvature="0"
           style="fill:#248432" />
        <path
           transform="translate(197.973,275.521)"
           d="M 217.83,252.035 196.92,272.856 176.1,251.944 Z"
           data-name="Path 2550"
           id="Path_2550"
           inkscape:connector-curvature="0"
           style="fill:#248432" />
      </g>
    </g>
  </g>
</svg>

<?xml version="1.0" encoding="UTF-8" standalone="no"?>
<svg
   xmlns:dc="http://purl.org/dc/elements/1.1/"
   xmlns:cc="http://creativecommons.org/ns#"
   xmlns:rdf="http://www.w3.org/1999/02/22-rdf-syntax-ns#"
   xmlns:svg="http://www.w3.org/2000/svg"
   xmlns="http://www.w3.org/2000/svg"
   xmlns:xlink="http://www.w3.org/1999/xlink"
   xmlns:sodipodi="http://sodipodi.sourceforge.net/DTD/sodipodi-0.dtd"
   xmlns:inkscape="http://www.inkscape.org/namespaces/inkscape"
   inkscape:version="1.0 (6e3e5246a0, 2020-05-07)"
   sodipodi:docname="intro-paths.svg"
   id="svg7090"
   version="1.1"
   viewBox="0 0 1694.072 889.924"
   height="889.924"
   width="1694.072">
  <metadata
     id="metadata7094">
    <rdf:RDF>
      <cc:Work
         rdf:about="">
        <dc:format>image/svg+xml</dc:format>
        <dc:type
           rdf:resource="http://purl.org/dc/dcmitype/StillImage" />
        <dc:title></dc:title>
      </cc:Work>
    </rdf:RDF>
  </metadata>
  <sodipodi:namedview
     inkscape:current-layer="Group_953"
     inkscape:window-maximized="1"
     inkscape:window-y="0"
     inkscape:window-x="1920"
     inkscape:cy="444.96201"
     inkscape:cx="847.03601"
     inkscape:zoom="0.74199915"
     showgrid="false"
     id="namedview7092"
     inkscape:window-height="1043"
     inkscape:window-width="1920"
     inkscape:pageshadow="2"
     inkscape:pageopacity="0"
     guidetolerance="10"
     gridtolerance="10"
     objecttolerance="10"
     borderopacity="1"
     bordercolor="#666666"
     pagecolor="#ffffff" />
  <defs
     id="defs6042">
    <image
       xlink:href="data:image/png;base64,iVBORw0KGgoAAAANSUhEUgAAASwAAAANCAYAAAAT+lNSAAAAAXNSR0IArs4c6QAAADhlWElmTU0AKgAAAAgAAYdpAAQAAAABAAAAGgAAAAAAAqACAAQAAAABAAABLKADAAQAAAABAAAADQAAAADMVXXMAAAAlklEQVRoBe3UAQ2AMBADwG1oQQ2iCGKQgAokIOYJwcSa3Ctorp/2qmr7tlZzBAgQmFxgqfs0VpOXJB4BAr/AAEGAAIEUAYOV0pScBAg0g+UJCBCIETBYMVUJSoCAwfIDBAjECBismKoEJUDAYPkBAgRiBAxWTFWCEiBgsPwAAQIxAgYrpipBCRAYx/V0DAQIEJhd4NuqF0zJDJjOq+EkAAAAAElFTkSuQmCC"
       height="7.317"
       width="168.855"
       id="image" />
    <image
       xlink:href="data:image/png;base64,iVBORw0KGgoAAAANSUhEUgAAASwAAAANCAYAAAAT+lNSAAAAAXNSR0IArs4c6QAAADhlWElmTU0AKgAAAAgAAYdpAAQAAAABAAAAGgAAAAAAAqACAAQAAAABAAABLKADAAQAAAABAAAADQAAAADMVXXMAAAAjElEQVRoBe3UAQmAUBBEQf/PYhpDCYYyjWEUTeGDuQTL7LFj39Z7cQQIEAgIzEBGEQkQIPAJGCyPQIBARsBgZaoSlAABg+UHCBDICBisTFWCEiBgsPwAAQIZAYOVqUpQAgQMlh8gQCAjYLAyVQlKgIDB8gMECGQEDFamKkEJEJjHeQ0MBAgQ+LvAu1UPCQUGKaC8tukAAAAASUVORK5CYII="
       height="7.317"
       width="168.855"
       id="image-2" />
  </defs>
  <g
     transform="translate(-28.933 -47.128)"
     data-name="Group 953"
     id="Group_953">
    <path
       stroke-width="4"
       stroke-miterlimit="10"
       stroke="#f77e0b"
       fill="none"
       transform="translate(48.432 308.418)"
       d="M409.987,367.98H153.836c-4.927.113-45.42.575-71.1-22.167-15.3-13.555-17.425-28.34-17.8-34.273V276.4"
       data-name="Path 2532"
       id="Path_2532" />
    <path
       stroke-width="4"
       stroke-miterlimit="10"
       stroke="#f77e0b"
       fill="none"
       transform="translate(48.329 69.235)"
       d="M65.038,473.954,64.86,145.678A49.7,49.7,0,0,1,72.489,120c12.08-18.776,32.957-21.109,36.046-21.4"
       data-name="Path 2533"
       id="Path_2533" />
    <line
       stroke-width="4"
       stroke-miterlimit="10"
       stroke="#f77e0b"
       fill="none"
       transform="translate(590.905 169.884)"
       x2="106.549"
       data-name="Line 74"
       id="Line_74" />
    <line
       stroke-width="4"
       stroke-miterlimit="10"
       stroke="#f77e0b"
       fill="none"
       transform="translate(881.093 169.884)"
       x2="100.618"
       data-name="Line 75"
       id="Line_75" />
    <line
       stroke-width="4"
       stroke-miterlimit="10"
       stroke="#f77e0b"
       fill="none"
       transform="translate(1111.002 169.884)"
       x2="93.67"
       data-name="Line 76"
       id="Line_76" />
    <path
       stroke-width="4"
       stroke-miterlimit="10"
       stroke="#f77e0b"
       fill="none"
       transform="translate(891.116 65.94)"
       d="M691.369,96.181s44.3-2.779,49.742,41.543v50.938"
       data-name="Path 2534"
       id="Path_2534" />
    <line
       stroke-width="4"
       stroke-miterlimit="10"
       stroke="#f77e0b"
       fill="none"
       transform="translate(1644.183 473.299)"
       y2="38.588"
       data-name="Line 77"
       id="Line_77" />
    <line
       stroke-dasharray="12 9"
       stroke-width="2"
       stroke-miterlimit="10"
       stroke="#00a1ed"
       fill="none"
       transform="translate(1669.795 473.299)"
       y2="38.588"
       data-name="Line 78"
       id="Line_78" />
    <line
       stroke-width="4"
       stroke-miterlimit="10"
       stroke="#f77e0b"
       fill="none"
       transform="translate(1383.579 619.585)"
       x1="148.589"
       data-name="Line 79"
       id="Line_79" />
    <path
       stroke-width="4"
       stroke-miterlimit="10"
       stroke="#248432"
       fill="none"
       transform="translate(209.838 146.374)"
       d="M249.2,447.615l-36.843.471c-5.743,0-14.468-1.032-20.4-7.235-5.971-6.241-6.421-14.576-6.482-18.415-.256-16.421-.748-71.951-.424-147.821a26.505,26.505,0,0,1,6.583-20.286c10.331-11.316,26.438-8.872,27.247-8.736l308.672.523c2.094.106,28.208,1,43.215-18.49a43.846,43.846,0,0,0,8.762-29.552q.025-21.068.049-42.136"
       data-name="Path 2535"
       id="Path_2535" />
    <path
       stroke-dasharray="12 9"
       stroke-width="2"
       stroke-miterlimit="10"
       stroke="#00a1ed"
       fill="none"
       transform="translate(11.288 11.967)"
       d="M1655.317,229.086v-101.9s-8.187-68.794-68.485-70.931H123.737S36.026,48.606,38.071,120.8v424.99S27.849,630.739,83.052,628.7"
       data-name="Path 2536"
       id="Path_2536" />
    <line
       stroke-dasharray="12 9"
       stroke-width="2"
       stroke-miterlimit="10"
       stroke="#00a1ed"
       fill="none"
       transform="translate(185.346 642.898)"
       x2="269.096"
       data-name="Line 80"
       id="Line_80" />
    <path
       stroke-dasharray="12 9"
       stroke-width="2"
       stroke-miterlimit="10"
       stroke="#00a1ed"
       fill="none"
       transform="translate(408.807 146.374)"
       d="M936.04,155.939v40.183c.242,1.438,3.232,21.337-12.076,35.424-14.77,13.593-33.5,9.747-35.169,9.374H461.285s-36.991,5.054-33.478,54.444l-.277,115.8c-.1,2.58-.943,17.493-13.379,28.093a38.631,38.631,0,0,1-22.125,8.945h-59.2"
       data-name="Path 2537"
       id="Path_2537" />
    <path
       fill="#f77e0b"
       transform="translate(147.392 349.7)"
       d="M159.624,348.815,138.5,328.21l20.605-21.123Q159.363,327.951,159.624,348.815Z"
       data-name="Path 2538"
       id="Path_2538" />
    <path
       fill="#00a1ed"
       transform="translate(606.549 0)"
       d="M500.951,88.856,479.828,68.251l20.6-21.123Q500.691,67.992,500.951,88.856Z"
       data-name="Path 2539"
       id="Path_2539" />
    <path
       fill="#00a1ed"
       transform="translate(606.944 183.289)"
       d="M501.245,225.109,480.122,204.5l20.6-21.123Q500.987,204.245,501.245,225.109Z"
       data-name="Path 2540"
       id="Path_2540" />
    <path
       fill="#248432"
       transform="translate(290.134 185.448)"
       d="M265.735,226.712l-21.123-20.6,20.6-21.123Q265.475,205.85,265.735,226.712Z"
       data-name="Path 2541"
       id="Path_2541" />
    <path
       fill="#f77e0b"
       transform="translate(811.402 316.585)"
       d="M653.234,324.2l-21.123-20.605,20.6-21.123Q652.974,303.334,653.234,324.2Z"
       data-name="Path 2542"
       id="Path_2542" />
    <path
       fill="#f77e0b"
       transform="translate(36.362 152.955)"
       d="M55.964,182.107l20.448-21.276,21.276,20.446Z"
       data-name="Path 2543"
       id="Path_2543" />
    <path
       fill="#00a1ed"
       transform="translate(927.402 64.952)"
       d="M718.343,116.69l20.445-21.278,21.278,20.448Z"
       data-name="Path 2544"
       id="Path_2544" />
    <path
       fill="#f77e0b"
       transform="translate(351.158 58.175)"
       d="M289.976,90.374l20.947,20.783L290.14,132.1Q290.059,111.241,289.976,90.374Z"
       data-name="Path 2545"
       id="Path_2545" />
    <path
       fill="#f77e0b"
       transform="translate(641.531 58.175)"
       d="M505.833,90.374l20.947,20.783L506,132.1Q505.913,111.241,505.833,90.374Z"
       data-name="Path 2546"
       id="Path_2546" />
    <path
       fill="#f77e0b"
       transform="translate(907.68 88.027)"
       d="M745.413,112.656,724.5,133.475l-20.821-20.91Z"
       data-name="Path 2547"
       id="Path_2547" />
    <path
       fill="#00a1ed"
       transform="translate(0 154.612)"
       d="M70.664,162.154l-20.91,20.818-20.821-20.91Z"
       data-name="Path 2548"
       id="Path_2548" />
    <path
       fill="#248432"
       transform="translate(423.677 165.491)"
       d="M385.616,170.241,364.7,191.06l-20.818-20.91Z"
       data-name="Path 2549"
       id="Path_2549" />
    <path
       fill="#248432"
       transform="translate(197.973 275.521)"
       d="M217.83,252.035l-20.91,20.821L176.1,251.944Z"
       data-name="Path 2550"
       id="Path_2550" />
  </g>
</svg>
